X:448
T:Laird of MacIntosh, The
R:Reel
B:The Athole Collection
M:C|
L:1/8
K:G
B/c/|d2 Bg dGBG|FDAD FAA B/c/|d2 Bg dGBG|FDAc BGG B/c/|
D2 Bg dGBG|FDAD FAA B/c/|dcBg ecAG|FDFA BGGz||
dgg>f eaeg|fdef gfga|dggf eaeg|fadf g2 gg/f/|gbfa egdB|ceBd ABce|
dcBg dcBG|FDFd G2G||

